!!!!SEGMENT: pl-wnifc--493-n--001_oginski-michal-kleofas--16-polonaises-1-polonaise-in-f.krn
!!!cenid: 18xx:3860
!!!COM: Ogiński, Michał Kleofas
!!!COM-rismID: pe30002379
!!!CDT: 1765/09/25-1833/10/15
!!!CNT:
!!!OTL: 16 Polonaises
!!!PDT: 1864
!!!AGN:
!!!SMS-siglum: PL-Wnifc
!!!SMS-shelfmark: 493/n
!!!SMS-shelfwork: 001 W
!!!SMS-variant:
!!!SMS-altvar:
!!!NIFC-rismSourceID: 1001157350
!!!NIFC-rismChildID: 1001157352
!!!NIFC-islandoraID: nifc:212371
!!!URL-pdf-islandora: https://repozytorium.nifc.pl/islandora/object/nifc%3A212371/datastream/PDF/view
!!!URL-scan: https://polish.musicsources.pl/pl/lokalizacje/galeria/druki-muzyczne/16843 @EN{Scan on Polish Music Sources Website} @PL{Skany w portalu Dziedzictwo Muzyki Polskiej w otwartym dostępie}
!!!ONB-nifc: UWAGA: w zbiorze znajduje się 14 Polonezów z Triami, pliki są numerowane jak w źródle.
!!!AIN: 2 piano
!!!key: F
!!!OMD: Moderato
!!!filter-modern: sic -s | shed -k -e "s/LO:N:vis/LO:n:vis:/L" | shed -e "s/TX(.*):t=P:/tx$1:t=P:/LG" | shed -e "s/:rj/:RJ/L" | shed -k -e "s/([^a-gA-Gn#X-])[<>]/$1/g" | shed -e "s/LO:DY:(a|b|rj)/LO:dy:$1/L" | shed -e "s/-//B" | autostem -r | modori -m
**kern	**kern	**dynam
*part2	*part1	*part1
*staff2	*staff1	*
*I"Piano.	*I"Piano.	*
*I'pf	*I'pf	*
*Ipiano	*Ipiano	*
*ICklav	*ICklav	*
*IGsolo	*IGsolo	*
*mI"Pianoforte	*mI"Pianoforte	*
*mI'pf	*mI'pf	*
*clefF4	*clefG2	*
*k[b-]	*k[b-]	*
*F:	*F:	*
*M3/4	*M3/4	*
*>[A,A,B,A,A,C,A,A,B,A,A]	*>[A,A,B,A,A,C,A,A,B,A,A]	*
=1	=1	=1
*>A	*>A	*
(<8f>\L 8a>	16rdd	.
!	!LO:TX:b:i:t=dolce ed amoroso.:mod=dolce ed amoroso	!
.	16cc/KL	.
8c>\J)	8cc$/J	.
(8f>\L 8a>	4.ff/	.
8c>\J)	.	.
(8f>\L 8a>	.	.
8c>\J)	8gg/	.
=2	=2	=2
(8g>\L 8b->	(>8.ff/L	.
8c>\J)	.	.
.	16ee/Jk)	.
(8g>\L 8b->	4ee/	.
8c>\J)	.	.
(8g>\L 8b->	4rff	.
8c>\J)	.	.
!!LO:LB:g=original	!	!
=3	=3	=3
(8g>\L 8b->	(>16.cc/LL	<
.	32bn/K	.
8c>\J)	16.dd/	.
.	32cc/JJk	.
(8g>\L 8b->	16.ee/LL	.
.	32dd/K	.
8c>\J)	16.ff/	.
.	32ee/JJk	.
(8g>\L 8b->	16ff#X/LL	.
.	16gg/	.
8c>\J)	16aa/	.
.	16gg/JJ)	[[
=4	=4	=4
(8fn>\L 8a>	(>16.gg/LL	.
.	32aa/K	.
8c>\J)	16.ee/	.
.	32gg/JJk)	.
(8f>\L 8a>	4ffn/	.
8c>\J)	.	.
(8f>\L 8a>	16rdd	.
.	16cc/KL	.
!	!LO:TX:a:t=P:problem:♮ above	!
8c>\J)	8cc$sS/J	.
=5	=5	=5
(8fn>\L 8a>	8ff^/L	.
8c>\J)	8cc/J	.
(8f>\L 8a>	16rdd	.
.	16cc/KL	.
!	!LO:TX:a:t=P:problem:♮ above	!
8c>\J)	8cc$sS/J	.
(8g>\L 8b->	8.ee/L	.
8c>\J)	.	.
.	16cc/Jk	.
!!LO:LB:g=original	!	!
=6	=6	=6
(8f>\L 8a>	(16ff/LL	<
.	16cc/	.
8c>\J)	16cc#X/	.
.	16dd/JJ	.
(8f>\L 8a>	16dd#X/LL	.
.	16ee/	.
8c>\J)	16ff/	.
.	16ff#X/JJ)	.
(8g>\L 8b->	8.gg^/L	.
8c>\J)	.	.
.	16ee/Jk	[[
=7	=7	=7
8f\L 8a	(8ffn'\L	>
(8A'\	8ff#X'\	.
8B-'\	8gg'\	.
8c'\J)	8aa'\J)	.
8d'\L	(16ccc\LL	.
.	16bb-\)	.
8B-'\J	16aa'\	.
.	16gg'\JJ	]]
=8	=8	=8
4c\	8ffn$\L	.
.	(16aa\L	.
.	16gg\JJ)	.
8r	4b-\ 4gg	.
8C\L	.	.
!	!LO:TX:b:t=Finè.:mod=	!
8F\J	8a\ 8ff	.
8r	8r	.
!!LO:TX:a:B:rj:t=:mod=Fine
!!LO:LB:g=original	!	!
=9:|!	=9:|!	=9:|!
*>B	*>B	*
4re>	(16aa/LL	p
.	16gg/)	.
.	16ff'/	.
.	16ee'/JJ	.
8rg>	4.ee/	.
8c>\L 8b->	.	.
8c>\ 8b->	.	.
8c>\J 8b->	16ree	.
.	16gg/	.
=10	=10	=10
4re>	(16gg/LL	.
.	16ff/)	.
.	16ee'>/	.
.	16gg'>/JJ	.
8rf>	4.ff/	.
8c>\L 8a>	.	.
8c>\ 8a>	.	.
8c>\J 8a>	16rdd	.
.	16ff#X/	.
=11	=11	=11
4re>	(>16aa/LL	<
.	16gg/)	.
.	16ff#X'>/	.
.	16aa'>/JJ	.
8rf>	4.gg/	.
8B->\L 8d> 8g>	.	.
8B->\ 8d> 8g>	.	.
8B->\J 8d> 8g>	16rdd	.
.	16ffn/	.
=12	=12	=12
4c>\ 4e> 4g>	8ee/L	f >
.	(>8ccc/	.
4re>	8bbn/	.
.	8bb-X/	.
!LO:TX:i:b:t=Da Capo\nal Fine.:mod=	!	!
4re>	8gg/	.
.	8ee/J)	]]
!!LO:TX:a:B:rj:t=:mod=Da Capo al Fine
!!LO:PB:g=original	!	!
==13	==13	==13
*>C	*>C	*
*k[b-e-a-d-]	*k[b-e-a-d-]	*
*M3/4	*M3/4	*
.	(>8qcc/	p
(8f>\L 8a->	4aa-/)	.
8c>\J)	.	.
.	(>8qcc/	.
(8en>\L 8b->	4gg/)	.
8c>\J)	.	.
.	(>8qcc/	.
(8f>\L 8a->	4ff/)	.
8c>\J)	.	.
=14	=14	=14
(8g>\L 8b->	8een/L	.
8c>\J)	8cc/J	.
(8g>\L 8b->	8rff	.
8c>\J)	8cc/	.
(8g>\L 8b->	8cc/L	.
8c>\J)	(>32dd-/LL	.
.	32cc/	.
.	32bn/	.
.	32cc/JJJ)	.
=15	=15	=15
.	(>8qcc/	.
(8en>\L 8g>	4bb-/)	.
8c>\J)	.	.
.	(>8qcc/	.
(8f>\L 8a->	4aa-/)	.
8c>\J)	.	.
.	(>8qcc/	.
(8g>\L 8b->	4gg/)	.
8c>\J)	.	.
!!LO:LB:g=original	!	!
=16	=16	=16
(8f>\L 8a->	(>16gg/LL	.
.	16aa-/)	.
8c>\J)	16een'>/	.
.	16ff'>/JJ	.
.	(>32qqgg/LLL	.
.	32qqff/	.
.	32qqee/JJJ	.
(8f>\L 8a->	4ff/)	.
8c>\J)	.	.
(8f>\L 8a->	4ree>	.
8c>\J)	.	.
=17	=17	=17
2d->^<\ 2f> 2a->	8rff	.
.	(>8ff'>/L	.
.	8ff'>/	.
.	8ff'>/J)	.
.	(<16qqff/LL	.
.	16qqgg/JJ	.
4re>	8.aa-^>/L)	.
.	(>32gg/LL	.
.	32ff/JJJ)	.
=18	=18	=18
2c>\ 2f> 2a->	8ree	.
.	(>8ff'>/L	.
.	8ff'>/	.
.	8ff'>/J)	.
.	(<16qqff/LL	.
.	16qqgg/JJ	.
4re>	8.aa-^>/L)	.
.	(>32gg/LL	.
.	32ff/JJJ)	.
!!LO:LB:g=original	!	!
=19	=19	=19
2.Bn>^\ 2.dn> 2.f> 2.a->	8ree	.
!	!	!LO:HP:b:t=dim e smorz.
.	8ff/	>
.	(16ff/LL	.
.	16gg/	.
.	16aa-/	.
.	16gg/JJ	.
.	16bb-X/LL	.
.	16aa-/	.
.	16gg/	.
.	16ff/JJ)	.
=20	=20	=20
.	8qgg/	.
[4c>\ 4a->	8.ffT/L	.
.	32een/LL	.
.	32ff/JJJ	.
8c>\] 8g>	4ee/	.
(8c\L	.	.
8Bn\	4r	.
8B-X\J)	.	.
=21	=21	=21
(16A-X\LL	(8.ee-X^\L	.
16e-X\	.	.
16c\	.	.
16e-\JJ)	16cc\Jk)	.
(16A-\LL	(8.aa-X^\L	.
16e-\	.	.
16c\	.	.
16e-\JJ)	16ee-\Jk)	.
(16A-\LL	(8.cc^\L	.
16e-\	.	.
16c\	.	.
16e-\JJ)	16ee-\Jk)	.
!!LO:LB:g=original	!	!
=22	=22	=22
(16B-\LL	(16ee-\LL	.
16e-\	16dd-\	.
16d-\	16cc\)	.
16e-\JJ)	16ee-'\JJ	.
(16B-\LL	[2dd-\	.
16e-\	.	.
16d-\	.	.
16e-\JJ)	.	.
(16B-\LL	.	.
16e-\	.	.
16d-\	.	.
16e-\JJ)	.	.
=23	=23	=23
(16G\LL	8dd-$\L]	.
16e-\	.	.
16d-\	16ee-'\L	.
16e-\JJ)	16ff'\JJ	.
(16G\LL	(16gg\LL	.
16e-\	16aa-\)	.
16d-\	16bb-'\	.
16e-\JJ)	16ccc'\JJ	.
(16G\LL	(16ddd-\LL	.
16e-\	16bb-\)	.
16d-\	16gg'\	.
16e-\JJ)	16dd-'\JJ	.
=24	=24	=24
(16A-\LL	(16dd-\LL	.
16e-\	16cc\)	.
16c\	16ff'\	.
16e-\JJ)	16ee-'\JJ	.
.	(32qqddn/LLL	.
.	32qqee-/	.
.	32qqff/JJJ	.
(16A-\LL	4ee-\)	.
16e-\	.	.
16c\	.	.
16e-\JJ)	.	.
(16G\LL	8r	.
16en\	.	.
16B-\	16r	.
16e\JJ)	16cc\	.
!!LO:LB:g=original	!	!
=25	=25	=25
(8G/L	4aa-/	.
8c>\J)	.	.
.	(8qcc/	.
(8en>\L 8b->	4gg/)	.
8c>\J)	.	.
.	(8qcc/	.
(8f>\L 8a->	4ff/)	.
8c>\J)	.	.
=26	=26	=26
.	(>8qcc/	.
4.c>\ 4.g>	8een/L)	.
.	(>8qcc/	.
.	8ccc/)	.
.	(>8qcc/	.
.	8ccc/J)	.
(8c>\L 8en>	8rdd	<
8dn>\ 8f>	8rdd	.
8e>\J) 8g>	8bb-/	[[
=27	=27	=27
*	*^	*
4f>^\ 4a->	8ree	8ryy	.
.	8aa-/	8cc\	.
4B-\	8r	2ryy	p
.	8b-\ 8gg	.	.
4c\	8r	.	.
.	8g\ 8een	.	.
*	*v	*v	*
=28	=28	=28
4F\	((2b-\ [>2cc 2een 2gg	.
4C/	.	.
!	!LO:TX:b:i:t=Da Capo.:mod=	!
8FF/	8a-\)) 8cc] 8ff	.
8r	8r	.
!!LO:TX:a:B:t=:mod=Da Capo
==	==	==
*-	*-	*-
!!!system-decoration: {(s1,s2)}
!!!RDF**kern: > = above
!!!RDF**kern: < = below
!!!ENC: Filip Voros
!!!END: 2022-07-25
!!!ENC: Jan Barakat
!!!END: 2022-08-22
!!!ENC-modern: Andrzej Borzym
!!!END-modern: 2022-08-30
!!!YEC: Copyright 2022 Narodowy Instytut Fryderyka Chopina (https://polishscores.org)
!!!YEM: License CC-BY-4.0 (https://creativecommons.org/licenses/by/4.0)
